X:1
T:Se del mio amor temete
T:Girolamo Scotto
T:Source : Secondo Libro delle  Muse a tre voci---Venetia---G.Scotto---1562. Editor : André Vierendeels (18/05/16).
T:Notes : Original clefs : C1, C3, C4 Editorial accidentals above the staff Original note values have been halved Square brackets indicate ligatures "Primi toni"  
T:Se del mio amor temete
T:©
T:©
T:©
T:©
T:©
C:Girolamo Scotto
Z:©
%%score [ 1 [ 2 3 ] ]
L:1/8
Q:1/4=120
M:2/2
K:F
V:1 treble nm="Soprano" snm="S"
V:2 treble-8 nm="Tenor 1" snm="T 1"
V:3 treble-8 nm="Tenor 2" snm="T 2"
V:1
 z8 | z8 | D4 F3 G | A2 B2 A4 | D2 d2 d2 d2 | B6 B2 | A3 B c2 d2- | d2 c2 d3 c | BA G2 F4 | %9
w: ||Se del mio'a-|mor te- me-|te, se del mio'a-|mor te-|me- * * *|||
 E2 A2 A2 A2 | c3 B A2 c2 | F3 G A2 B2- | B2 AG F2 DE | FGAF GA B2 |"^#" A2 G4 F2 | G2 d2 d4 | %16
w: te, cer- to gran|tort' _ _ ha-|ve- * * *||||te, io v'a-|
 c2 A2 B4 | A4 z4 | z2 A2 B4- | B2 A2 G2 F2 | E4 D2 F2 | G2 A2 B2 A2 | D2 F3 E D2- | %23
w: mo, io v'a-|mo,|io v'a-|* mo an- zi|v'a- do- ro,|io v'a- mo an-|zi v'a- * do-|
 DC/B,/ C2 D2 F2 | G2 A2 B2 B2 | A3 G F2 c2- | c2 B3 A A2- | A2 GF G4 | A8- | A4 z4 | D4 A4- | %31
w: * * * * ro, et|per voi mil- le|vol- * te il|_ gior- no mo-||ro,|_|ne mai|
 A2 G2 B2 B2 | A4 G2 d2- | d2 c2 d2 A2 | A2 A2 c2 B2- | B2 d4 c2 | B2 A3 G G2- | G2 F2 G2 G2 | %38
w: _ can- ge- ro|vo- * *|* gli- a, men-|tre'in vi- ta sta-|* ra que-|sta mia- * spo-|* gli- a, don-|
 F2 F2 B2 B2 | A4 G2 d2 | d2 d2 c2 d2 | G3 A Bc d2 | c2 B4 A2 | B2 c2 c2 c2 | B2 A4 G2 | %45
w: que gran tort'- ha-|ve- te, se|del mio'a- mor te-|me- * * * *||te, se del mio'a-|mor te- me-|
 A2 D4 G2- | G2 F2 G2 c2 | c2 c2 B2 A2- | A2 G2 A2 D2- | D2 G4 F2 | G8 |] %51
w: te, se del|_ mio'a- mor, se|del mio'a- mor te-||* me- *|te.|
V:2
 z8 | z8 | z8 | z8 | G4 B3 c |"^b" d2 e2 d4 | c2 f2 e2 d2 | e2 e2 f2 d2- | d2 _e3 d d2- | %9
w: ||||Se del mio'a-|mor te- me-|te, se del mio'a-|mor te- me- *||
 d2 c2 d2 f2 | f2 e2 f2 e2 | d4 c2 d2 | _e2 d3 c B2 | ABcA Bc d2 | c2 B2 A4 | G2 g2 f2 d2 | %16
w: * * te, cer-|to gran tort' ha-|ve- * *||||te, io v'aa- mo'an-|
 e2 f3 e/d/ e2 | fedc B2 A2 | G2 d2 d4- | d2 c2 B2 d2- | d2 c2 d4- | d2 c2 B2 c2 | B2 A2 G2 A2 | %23
w: zi v'a- * * *|do- * * * * *|ro, io v'a-|* mo an- zi|_ v'a- do-|* ro, v'a- mo|an- zai v'a- do-|
 G4 A2 d2 | c2 c2 Bcde | f2 c2 d2 e2 | f2 d4 A2 | B8 | A2 d4 f2- | f2 e2 d2 c2- | c2 B2 c2 f2 | %31
w: * ro, et|per voi _ _ _ _|_ mil- le volt'|il gior- no|mo-|ro, ne mai|_ can- ge ro|_ vo- glia, ne|
 f2 _e2 d2 g2- | g2 f2 gfed | e4 d2 f2 | f2 f2 e2 g2 | f2 d2 e2 f2 | g2 d3 c B2 | A4 G2 d2 | %38
w: mai can- ge- ro|_ vo- * * * *|gli a, men-|tre'in vi- ta sta-|ra que- sta mia|spo- gli- * *|* a, don-|
 d3 e fd g2- |"^#" g2 f2 g2 f2 | f2 f2 f2 f2 | _e4 d2 B2 | c2 d2 c4 | B2 f2 e2 f2 | g2 d2 d2 d2 | %45
w: que gran tort' ha- ve-|* * te, se|del mio'a- mor te-|me- te, a-|mor te- me-|te, se del mio'a-|mor, se del mio'a-|
 c2 B4 AG | A4 B2 f2 | e2 f2 g2 d2 | d2 d2 c2 B2- | B2 AG A4 | G8 |] %51
w: mor te- me- *|* te, se|del mio'a- mor, se|del mio'a- mor te-|* * * me-|te.|
V:3
 D4 F3 G | A2 B2 A4 | D2 d2 d2 d2 | c2 d3 cBA | B4 G3 A | B2 G2 G2 D2 | F3 G A2 B2 | A4 D2 G2 | %8
w: Se del mio'a-|mor te- me-|te, se del mio'a-|mor te- * * *|me- te, _|_ cer- to gran|tor- * * to'ha-|ve- te, cer-|
 G2 G2 D2 D2 | A4 D4 | z2 A2 A2 A2 | B4 A2 G2- | G2 FE D2 G2 | F4 z2 D2 | F2 G2 D4 | z2 G2 B4 | %16
w: to gran tor- to'ha-|ve- te,|cer- to gran|tort' ha- ve-||te, ha-|ve- * te,|io v'a-|
 A2 D2 G4 | F4 D4 | z2 D2 G4 | D2 F2 G2 D2 | A4 B4- | B2 A2 G2 F2 | G2 D2 D2 D2 | _E4 D4 | %24
w: mo, io va-|* mo,|io v'a-|mo an- zi v'a-|do- *||ro, an- zi v'a-|do- ro,|
 z2 F2 G2 G2 | F2 F2 B2 A2 | F2 G2 D4 | G8 | D4 z2 d2 | d2 c2 B2 A2 | G4 F4 | z2 G2 G2 G2 | %32
w: et per voi|volt' il gior- no|mo- * *||ro, ne|mai can- ge- ro|vo- glia,|ne mai can-|
 d2 d2 G2 B2 | A4 z2 D2- | D2 A4 G2 | B2 B2 A2 A2 | G2 ^F2 G4 | D4 z2 G2 | B3 c d2 G2 | d4 G2 B2 | %40
w: ge- ro vo- gli-|a, men-|* tre'in vi-|ta sta- rà que-|sta mia spo-|glia, don-|qie gran tort' ha-|ve- te, se|
 B2 B2 A2 B2 | c4 B2 G2 | A2 B2 F4 | z2 A2 A2 A2 |"^#" G2 F2 B4 | A2 G4 FE | D4 z2 A2 | %47
w: del mio'a- mor te-|me- * *|* * te,|se del mio'a-|mor te- me-||te, se|
 A2 A2 G2 F2 | B4 A2 G2- | G2 FE D4 | G8 |] %51
w: del mio'a- mor te-|me- * *||te.|

